weblate_web/static/img/icon-branches.svg

<svg viewBox="-1 -1 33 43"><path fill="none" stroke="#1fa385" d="M17.55 24.6c-6.888 0-9.143 2.768-9.881 4.592A6.154 6.154 0 0111.4 34.85 6.15 6.15 0 015.25 41 6.15 6.15 0 01-.9 34.85a6.13 6.13 0 014.1-5.801V11.95a6.13 6.13 0 01-4.1-5.8A6.15 6.15 0 015.25 0a6.15 6.15 0 016.15 6.15 6.13 6.13 0 01-4.1 5.801v10.845c1.804-1.333 4.428-2.296 8.2-2.296 5.473 0 7.298-2.747 7.893-4.572A6.161 6.161 0 0119.6 10.25a6.15 6.15 0 016.15-6.15 6.15 6.15 0 016.15 6.15c0 2.747-1.804 5.125-4.285 5.863-.532 2.931-2.521 8.487-10.065 8.487m-12.3 8.2a2.05 2.05 0 00-2.05 2.05 2.05 2.05 0 002.05 2.05 2.05 2.05 0 002.05-2.05 2.05 2.05 0 00-2.05-2.05m0-28.7A2.05 2.05 0 003.2 6.15 2.05 2.05 0 005.25 8.2 2.05 2.05 0 007.3 6.15 2.05 2.05 0 005.25 4.1m20.5 4.1a2.05 2.05 0 00-2.05 2.05 2.05 2.05 0 002.05 2.05 2.05 2.05 0 002.05-2.05 2.05 2.05 0 00-2.05-2.05z"/></svg>

<?xml version="1.0" encoding="UTF-8" standalone="no"?>
<svg
   xmlns:dc="http://purl.org/dc/elements/1.1/"
   xmlns:cc="http://creativecommons.org/ns#"
   xmlns:rdf="http://www.w3.org/1999/02/22-rdf-syntax-ns#"
   xmlns:svg="http://www.w3.org/2000/svg"
   xmlns="http://www.w3.org/2000/svg"
   xmlns:sodipodi="http://sodipodi.sourceforge.net/DTD/sodipodi-0.dtd"
   xmlns:inkscape="http://www.inkscape.org/namespaces/inkscape"
   version="1.1"
   width="33"
   height="41"
   viewBox="-1 -1 33 43"
   id="svg4"
   sodipodi:docname="icon-branches.svg"
   inkscape:version="0.92.4 (5da689c313, 2019-01-14)">
  <metadata
     id="metadata10">
    <rdf:RDF>
      <cc:Work
         rdf:about="">
        <dc:format>image/svg+xml</dc:format>
        <dc:type
           rdf:resource="http://purl.org/dc/dcmitype/StillImage" />
        <dc:title></dc:title>
      </cc:Work>
    </rdf:RDF>
  </metadata>
  <defs
     id="defs8" />
  <sodipodi:namedview
     pagecolor="#ffffff"
     bordercolor="#666666"
     borderopacity="1"
     objecttolerance="10"
     gridtolerance="10"
     guidetolerance="10"
     inkscape:pageopacity="0"
     inkscape:pageshadow="2"
     inkscape:window-width="1920"
     inkscape:window-height="1173"
     id="namedview6"
     showgrid="false"
     fit-margin-top="0"
     fit-margin-left="0"
     fit-margin-right="0"
     fit-margin-bottom="0"
     inkscape:zoom="9.8333333"
     inkscape:cx="-21.440678"
     inkscape:cy="9.5932203"
     inkscape:window-x="0"
     inkscape:window-y="27"
     inkscape:window-maximized="1"
     inkscape:current-layer="svg4" />
  <path
     d="m 17.55,24.6 c -6.888,0 -9.143,2.7675 -9.881,4.592 2.1935,0.943 3.731,3.116 3.731,5.658 A 6.15,6.15 0 0 1 5.25,41 6.15,6.15 0 0 1 -0.9,34.85 c 0,-2.6855 1.7015,-4.961 4.1,-5.8015 V 11.9515 C 0.8015,11.111 -0.9,8.8355 -0.9,6.15 A 6.15,6.15 0 0 1 5.25,0 6.15,6.15 0 0 1 11.4,6.15 c 0,2.6855 -1.7015,4.961 -4.1,5.8015 V 22.796 c 1.804,-1.3325 4.428,-2.296 8.2,-2.296 5.4735,0 7.298,-2.747 7.8925,-4.5715 C 21.1785,15.006 19.6,12.8125 19.6,10.25 a 6.15,6.15 0 0 1 6.15,-6.15 6.15,6.15 0 0 1 6.15,6.15 c 0,2.747 -1.804,5.125 -4.2845,5.863 C 27.0825,19.0445 25.094,24.6 17.55,24.6 M 5.25,32.8 A 2.05,2.05 0 0 0 3.2,34.85 2.05,2.05 0 0 0 5.25,36.9 2.05,2.05 0 0 0 7.3,34.85 2.05,2.05 0 0 0 5.25,32.8 m 0,-28.7 A 2.05,2.05 0 0 0 3.2,6.15 2.05,2.05 0 0 0 5.25,8.2 2.05,2.05 0 0 0 7.3,6.15 2.05,2.05 0 0 0 5.25,4.1 m 20.5,4.1 A 2.05,2.05 0 0 0 23.7,10.25 2.05,2.05 0 0 0 25.75,12.3 2.05,2.05 0 0 0 27.8,10.25 2.05,2.05 0 0 0 25.75,8.2 Z"
     id="path2"
     inkscape:connector-curvature="0"
     style="fill:none;stroke:#1fa385;stroke-width:1;stroke-opacity:1" />
</svg>
